build/img/bg-section1@1024.svg

<svg height="0" width="0">
    <defs>
        <clipPath id="svgPath-bg-section@1024">
            <path fill="#FFFFFF" stroke="#000000" stroke-width="1.5794" stroke-miterlimit="10" d="M247 12.3233C354.129 10.9658 389.033 12.3233 521.173 2.69572C653.313 -6.93185 739.338 12.3233 764.988 12.3233C790.638 12.3233 959.5 12.3233 1041.44 26.3222C1123.38 40.3211 1182.42 10.7425 1273 12.3233C1343.3 13.5502 1452.5 26.3222 1452.5 26.3222V549.531C1452.5 549.531 1343.08 547.786 1273 549.531C1171.84 552.049 1199.61 574.029 1014.36 565.279C829.113 556.53 883.975 536.107 757.863 560.03C631.75 583.953 609.596 574.121 487.825 565.279C331.221 570.334 305.897 555.417 247 549.531C188.103 543.644 0.5 549.531 0.5 549.531V12.3233C0.5 12.3233 65.267 26.3222 101 26.3222C161.531 26.3222 186.474 13.0903 247 12.3233Z"/>
        </clipPath>
    </defs>
</svg>

<svg height="0" width="0"><defs><clipPath id="svgPath-bg-section@1024"><path fill="#FFF" stroke="#000" stroke-width="1.579" stroke-miterlimit="10" d="M247 12.323c107.129-1.357 142.033 0 274.173-9.627 132.14-9.628 218.165 9.627 243.815 9.627 25.65 0 194.512 0 276.452 14 81.94 13.998 140.98-15.58 231.56-14 70.3 1.227 179.5 14 179.5 14V549.53s-109.42-1.745-179.5 0c-101.16 2.518-73.39 24.498-258.64 15.748-185.247-8.749-130.385-29.172-256.497-5.249-126.113 23.923-148.267 14.091-270.038 5.249-156.604 5.055-181.928-9.862-240.825-15.748-58.897-5.887-246.5 0-246.5 0V12.323s64.767 14 100.5 14c60.531 0 85.474-13.233 146-14z"/></clipPath></defs></svg>
